( Made using CamBam - http://www.cambam.co.uk )
( frequency_counter_panel 1/23/2016 9:22:54 PM )
( T3 : 3.175 )
( T10 : 0.0 )
G21 G90 G64 G40
G0 Z3.0
( T10 : 0.0 )
T10 M6
( mount_marks )
G17
M3 S1000
G0 X8.3706 Y78.6021
G98
G81 X8.3706 Y78.6021 Z-0.2 R3.0 F1000.0
G81 X29.418 Y78.55 Z-0.2
G81 X29.4201 Y101.6013 Z-0.2
G81 X8.3712 Y101.6462 Z-0.2
G80
( holes )
( T3 : 3.175 )
T3 M6
M3 S1000
G0 X8.4149 Y3.1248
G0 Z3.0
G0 X8.4274 Y3.1248
G1 Z0.0
G2 F2000.0 X8.4086 Y3.1139 Z-0.0333 I-0.0125 J0.0
G2 Y3.1356 Z-0.0667 I0.0062 J0.0108
G2 X8.4274 Y3.1248 Z-0.1 I0.0062 J-0.0108
G2 X8.4086 Y3.1139 Z-0.1333 I-0.0125 J0.0
G2 Y3.1356 Z-0.1667 I0.0062 J0.0108
G2 X8.4274 Y3.1248 Z-0.2 I0.0062 J-0.0108
G2 X8.4086 Y3.1139 Z-0.2333 I-0.0125 J0.0
G2 Y3.1356 Z-0.2667 I0.0062 J0.0108
G2 X8.4274 Y3.1248 Z-0.3 I0.0062 J-0.0108
G2 X8.4086 Y3.1139 Z-0.3333 I-0.0125 J0.0
G2 Y3.1356 Z-0.3667 I0.0062 J0.0108
G2 X8.4274 Y3.1248 Z-0.4 I0.0062 J-0.0108
G2 X8.4086 Y3.1139 Z-0.4333 I-0.0125 J0.0
G2 Y3.1356 Z-0.4667 I0.0062 J0.0108
G2 X8.4274 Y3.1248 Z-0.5 I0.0062 J-0.0108
G2 X8.4086 Y3.1139 Z-0.5333 I-0.0125 J0.0
G2 Y3.1356 Z-0.5667 I0.0062 J0.0108
G2 X8.4274 Y3.1248 Z-0.6 I0.0062 J-0.0108
G2 X8.4086 Y3.1139 Z-0.6333 I-0.0125 J0.0
G2 Y3.1356 Z-0.6667 I0.0062 J0.0108
G2 X8.4274 Y3.1248 Z-0.7 I0.0062 J-0.0108
G2 X8.4086 Y3.1139 Z-0.7333 I-0.0125 J0.0
G2 Y3.1356 Z-0.7667 I0.0062 J0.0108
G2 X8.4274 Y3.1248 Z-0.8 I0.0062 J-0.0108
G2 X8.4086 Y3.1139 Z-0.8333 I-0.0125 J0.0
G2 Y3.1356 Z-0.8667 I0.0062 J0.0108
G2 X8.4274 Y3.1248 Z-0.9 I0.0062 J-0.0108
G2 X8.4086 Y3.1139 Z-0.9333 I-0.0125 J0.0
G2 Y3.1356 Z-0.9667 I0.0062 J0.0108
G2 X8.4274 Y3.1248 Z-1.0 I0.0062 J-0.0108
G2 X8.4086 Y3.1139 Z-1.0333 I-0.0125 J0.0
G2 Y3.1356 Z-1.0667 I0.0062 J0.0108
G2 X8.4274 Y3.1248 Z-1.1 I0.0062 J-0.0108
G2 X8.4086 Y3.1139 Z-1.1333 I-0.0125 J0.0
G2 Y3.1356 Z-1.1667 I0.0062 J0.0108
G2 X8.4274 Y3.1248 Z-1.2 I0.0062 J-0.0108
G2 X8.4086 Y3.1139 Z-1.2333 I-0.0125 J0.0
G2 Y3.1356 Z-1.2667 I0.0062 J0.0108
G2 X8.4274 Y3.1248 Z-1.3 I0.0062 J-0.0108
G2 X8.4086 Y3.1139 Z-1.3333 I-0.0125 J0.0
G2 Y3.1356 Z-1.3667 I0.0062 J0.0108
G2 X8.4274 Y3.1248 Z-1.4 I0.0063 J-0.0108
G2 X8.4086 Y3.1139 Z-1.4333 I-0.0125 J0.0
G2 Y3.1356 Z-1.4667 I0.0062 J0.0108
G2 X8.4274 Y3.1248 Z-1.5 I0.0063 J-0.0108
G2 X8.4086 Y3.1139 Z-1.5333 I-0.0125 J0.0
G2 Y3.1356 Z-1.5667 I0.0062 J0.0108
G2 X8.4274 Y3.1248 Z-1.6 I0.0063 J-0.0108
G2 X8.4086 Y3.1139 Z-1.6333 I-0.0125 J0.0
G2 Y3.1356 Z-1.6667 I0.0062 J0.0108
G2 X8.4274 Y3.1248 Z-1.7 I0.0063 J-0.0108
G2 X8.4086 Y3.1139 Z-1.7333 I-0.0125 J0.0
G2 Y3.1356 Z-1.7667 I0.0062 J0.0108
G2 X8.4274 Y3.1248 Z-1.8 I0.0063 J-0.0108
G2 X8.4086 Y3.1139 Z-1.8333 I-0.0125 J0.0
G2 Y3.1356 Z-1.8667 I0.0062 J0.0108
G2 X8.4274 Y3.1248 Z-1.9 I0.0063 J-0.0108
G2 X8.4086 Y3.1139 Z-1.9333 I-0.0125 J0.0
G2 Y3.1356 Z-1.9667 I0.0062 J0.0108
G2 X8.4274 Y3.1248 Z-2.0 I0.0063 J-0.0108
G2 X8.4086 Y3.1139 Z-2.0333 I-0.0125 J0.0
G2 Y3.1356 Z-2.0667 I0.0062 J0.0108
G2 X8.4274 Y3.1248 Z-2.1 I0.0063 J-0.0108
G2 X8.4086 Y3.1139 Z-2.1333 I-0.0125 J0.0
G2 Y3.1356 Z-2.1667 I0.0062 J0.0108
G2 X8.4274 Y3.1248 Z-2.2 I0.0062 J-0.0108
G2 X8.4086 Y3.1139 Z-2.2333 I-0.0125 J0.0
G2 Y3.1356 Z-2.2667 I0.0062 J0.0108
G2 X8.4274 Y3.1248 Z-2.3 I0.0062 J-0.0108
G2 X8.4086 Y3.1139 Z-2.3333 I-0.0125 J0.0
G2 Y3.1356 Z-2.3667 I0.0062 J0.0108
G2 X8.4274 Y3.1248 Z-2.4 I0.0062 J-0.0108
G2 X8.4086 Y3.1139 Z-2.4333 I-0.0125 J0.0
G2 Y3.1356 Z-2.4667 I0.0062 J0.0108
G2 X8.4274 Y3.1248 Z-2.5 I0.0062 J-0.0108
G2 X8.4086 Y3.1139 Z-2.5333 I-0.0125 J0.0
G2 Y3.1356 Z-2.5667 I0.0063 J0.0108
G2 X8.4274 Y3.1248 Z-2.6 I0.0062 J-0.0108
G2 X8.4086 Y3.1139 Z-2.6333 I-0.0125 J0.0
G2 Y3.1356 Z-2.6667 I0.0063 J0.0108
G2 X8.4274 Y3.1248 Z-2.7 I0.0062 J-0.0108
G2 X8.4086 Y3.1139 Z-2.7333 I-0.0125 J0.0
G2 Y3.1356 Z-2.7667 I0.0063 J0.0108
G2 X8.4274 Y3.1248 Z-2.8 I0.0062 J-0.0108
G2 X8.4086 Y3.1139 Z-2.8333 I-0.0125 J0.0
G2 Y3.1356 Z-2.8667 I0.0063 J0.0108
G2 X8.4274 Y3.1248 Z-2.9 I0.0062 J-0.0108
G2 X8.4086 Y3.1139 Z-2.9333 I-0.0125 J0.0
G2 Y3.1356 Z-2.9667 I0.0063 J0.0108
G2 X8.4274 Y3.1248 Z-3.0 I0.0062 J-0.0108
G2 X8.4086 Y3.1139 Z-3.0333 I-0.0125 J0.0
G2 Y3.1356 Z-3.0667 I0.0063 J0.0108
G2 X8.4274 Y3.1248 Z-3.1 I0.0062 J-0.0108
G2 X8.4086 Y3.1139 Z-3.1333 I-0.0125 J0.0
G2 Y3.1356 Z-3.1667 I0.0063 J0.0108
G2 X8.4274 Y3.1248 Z-3.2 I0.0062 J-0.0108
G2 X8.4086 Y3.1139 I-0.0125 J0.0
G2 Y3.1356 I0.0063 J0.0108
G2 X8.4274 Y3.1248 I0.0062 J-0.0108
G0 Z3.0
G0 X12.0452 Y41.5257
G1 F1000.0 Z0.0
G2 F2000.0 X12.0265 Y41.5149 Z-0.0333 I-0.0125 J0.0
G2 Y41.5365 Z-0.0667 I0.0063 J0.0108
G2 X12.0452 Y41.5257 Z-0.1 I0.0062 J-0.0108
G2 X12.0265 Y41.5149 Z-0.1333 I-0.0125 J0.0
G2 Y41.5365 Z-0.1667 I0.0063 J0.0108
G2 X12.0452 Y41.5257 Z-0.2 I0.0062 J-0.0108
G2 X12.0265 Y41.5149 Z-0.2333 I-0.0125 J0.0
G2 Y41.5365 Z-0.2667 I0.0063 J0.0108
G2 X12.0452 Y41.5257 Z-0.3 I0.0062 J-0.0108
G2 X12.0265 Y41.5149 Z-0.3333 I-0.0125 J0.0
G2 Y41.5365 Z-0.3667 I0.0063 J0.0108
G2 X12.0452 Y41.5257 Z-0.4 I0.0062 J-0.0108
G2 X12.0265 Y41.5149 Z-0.4333 I-0.0125 J0.0
G2 Y41.5365 Z-0.4667 I0.0063 J0.0108
G2 X12.0452 Y41.5257 Z-0.5 I0.0062 J-0.0108
G2 X12.0265 Y41.5149 Z-0.5333 I-0.0125 J0.0
G2 Y41.5365 Z-0.5667 I0.0063 J0.0108
G2 X12.0452 Y41.5257 Z-0.6 I0.0062 J-0.0108
G2 X12.0265 Y41.5149 Z-0.6333 I-0.0125 J0.0
G2 Y41.5365 Z-0.6667 I0.0063 J0.0108
G2 X12.0452 Y41.5257 Z-0.7 I0.0062 J-0.0108
G2 X12.0265 Y41.5149 Z-0.7333 I-0.0125 J0.0
G2 Y41.5365 Z-0.7667 I0.0063 J0.0108
G2 X12.0452 Y41.5257 Z-0.8 I0.0062 J-0.0108
G2 X12.0265 Y41.5149 Z-0.8333 I-0.0125 J0.0
G2 Y41.5365 Z-0.8667 I0.0063 J0.0108
G2 X12.0452 Y41.5257 Z-0.9 I0.0062 J-0.0108
G2 X12.0265 Y41.5149 Z-0.9333 I-0.0125 J0.0
G2 Y41.5365 Z-0.9667 I0.0063 J0.0108
G2 X12.0452 Y41.5257 Z-1.0 I0.0062 J-0.0108
G2 X12.0265 Y41.5149 Z-1.0333 I-0.0125 J0.0
G2 Y41.5365 Z-1.0667 I0.0063 J0.0108
G2 X12.0452 Y41.5257 Z-1.1 I0.0062 J-0.0108
G2 X12.0265 Y41.5149 Z-1.1333 I-0.0125 J0.0
G2 Y41.5365 Z-1.1667 I0.0063 J0.0108
G2 X12.0452 Y41.5257 Z-1.2 I0.0062 J-0.0108
G2 X12.0265 Y41.5149 Z-1.2333 I-0.0125 J0.0
G2 Y41.5365 Z-1.2667 I0.0063 J0.0108
G2 X12.0452 Y41.5257 Z-1.3 I0.0062 J-0.0108
G2 X12.0265 Y41.5149 Z-1.3333 I-0.0125 J0.0
G2 Y41.5365 Z-1.3667 I0.0063 J0.0108
G2 X12.0452 Y41.5257 Z-1.4 I0.0062 J-0.0108
G2 X12.0265 Y41.5149 Z-1.4333 I-0.0125 J0.0
G2 Y41.5365 Z-1.4667 I0.0063 J0.0108
G2 X12.0452 Y41.5257 Z-1.5 I0.0062 J-0.0108
G2 X12.0265 Y41.5149 Z-1.5333 I-0.0125 J0.0
G2 Y41.5365 Z-1.5667 I0.0063 J0.0108
G2 X12.0452 Y41.5257 Z-1.6 I0.0062 J-0.0108
G2 X12.0265 Y41.5149 Z-1.6333 I-0.0125 J0.0
G2 Y41.5365 Z-1.6667 I0.0063 J0.0108
G2 X12.0452 Y41.5257 Z-1.7 I0.0062 J-0.0108
G2 X12.0265 Y41.5149 Z-1.7333 I-0.0125 J0.0
G2 Y41.5365 Z-1.7667 I0.0063 J0.0108
G2 X12.0452 Y41.5257 Z-1.8 I0.0062 J-0.0108
G2 X12.0265 Y41.5149 Z-1.8333 I-0.0125 J0.0
G2 Y41.5365 Z-1.8667 I0.0063 J0.0108
G2 X12.0452 Y41.5257 Z-1.9 I0.0062 J-0.0108
G2 X12.0265 Y41.5149 Z-1.9333 I-0.0125 J0.0
G2 Y41.5365 Z-1.9667 I0.0063 J0.0108
G2 X12.0452 Y41.5257 Z-2.0 I0.0062 J-0.0108
G2 X12.0265 Y41.5149 Z-2.0333 I-0.0125 J0.0
G2 Y41.5365 Z-2.0667 I0.0063 J0.0108
G2 X12.0452 Y41.5257 Z-2.1 I0.0062 J-0.0108
G2 X12.0265 Y41.5149 Z-2.1333 I-0.0125 J0.0
G2 Y41.5365 Z-2.1667 I0.0063 J0.0108
G2 X12.0452 Y41.5257 Z-2.2 I0.0062 J-0.0108
G2 X12.0265 Y41.5149 Z-2.2333 I-0.0125 J0.0
G2 Y41.5365 Z-2.2667 I0.0063 J0.0108
G2 X12.0452 Y41.5257 Z-2.3 I0.0062 J-0.0108
G2 X12.0265 Y41.5149 Z-2.3333 I-0.0125 J0.0
G2 Y41.5365 Z-2.3667 I0.0063 J0.0108
G2 X12.0452 Y41.5257 Z-2.4 I0.0062 J-0.0108
G2 X12.0265 Y41.5149 Z-2.4333 I-0.0125 J0.0
G2 Y41.5365 Z-2.4667 I0.0063 J0.0108
G2 X12.0452 Y41.5257 Z-2.5 I0.0062 J-0.0108
G2 X12.0265 Y41.5149 Z-2.5333 I-0.0125 J0.0
G2 Y41.5365 Z-2.5667 I0.0063 J0.0108
G2 X12.0452 Y41.5257 Z-2.6 I0.0062 J-0.0108
G2 X12.0265 Y41.5149 Z-2.6333 I-0.0125 J0.0
G2 Y41.5365 Z-2.6667 I0.0063 J0.0108
G2 X12.0452 Y41.5257 Z-2.7 I0.0062 J-0.0108
G2 X12.0265 Y41.5149 Z-2.7333 I-0.0125 J0.0
G2 Y41.5365 Z-2.7667 I0.0063 J0.0108
G2 X12.0452 Y41.5257 Z-2.8 I0.0062 J-0.0108
G2 X12.0265 Y41.5149 Z-2.8333 I-0.0125 J0.0
G2 Y41.5365 Z-2.8667 I0.0063 J0.0108
G2 X12.0452 Y41.5257 Z-2.9 I0.0062 J-0.0108
G2 X12.0265 Y41.5149 Z-2.9333 I-0.0125 J0.0
G2 Y41.5365 Z-2.9667 I0.0063 J0.0108
G2 X12.0452 Y41.5257 Z-3.0 I0.0062 J-0.0108
G2 X12.0265 Y41.5149 Z-3.0333 I-0.0125 J0.0
G2 Y41.5365 Z-3.0667 I0.0063 J0.0108
G2 X12.0452 Y41.5257 Z-3.1 I0.0062 J-0.0108
G2 X12.0265 Y41.5149 Z-3.1333 I-0.0125 J0.0
G2 Y41.5365 Z-3.1667 I0.0063 J0.0108
G2 X12.0452 Y41.5257 Z-3.2 I0.0062 J-0.0108
G2 X12.0265 Y41.5149 I-0.0125 J0.0
G2 Y41.5365 I0.0063 J0.0108
G2 X12.0452 Y41.5257 I0.0062 J-0.0108
G0 Z3.0
G0 X12.095 Y57.9673
G1 F1000.0 Z0.0
G2 F2000.0 X12.0762 Y57.9565 Z-0.0333 I-0.0125 J0.0
G2 Y57.9782 Z-0.0667 I0.0063 J0.0108
G2 X12.095 Y57.9673 Z-0.1 I0.0062 J-0.0108
G2 X12.0762 Y57.9565 Z-0.1333 I-0.0125 J0.0
G2 Y57.9782 Z-0.1667 I0.0063 J0.0108
G2 X12.095 Y57.9673 Z-0.2 I0.0062 J-0.0108
G2 X12.0762 Y57.9565 Z-0.2333 I-0.0125 J0.0
G2 Y57.9782 Z-0.2667 I0.0063 J0.0108
G2 X12.095 Y57.9673 Z-0.3 I0.0062 J-0.0108
G2 X12.0762 Y57.9565 Z-0.3333 I-0.0125 J0.0
G2 Y57.9782 Z-0.3667 I0.0063 J0.0108
G2 X12.095 Y57.9673 Z-0.4 I0.0062 J-0.0108
G2 X12.0762 Y57.9565 Z-0.4333 I-0.0125 J0.0
G2 Y57.9782 Z-0.4667 I0.0063 J0.0108
G2 X12.095 Y57.9673 Z-0.5 I0.0062 J-0.0108
G2 X12.0762 Y57.9565 Z-0.5333 I-0.0125 J0.0
G2 Y57.9782 Z-0.5667 I0.0063 J0.0108
G2 X12.095 Y57.9673 Z-0.6 I0.0062 J-0.0108
G2 X12.0762 Y57.9565 Z-0.6333 I-0.0125 J0.0
G2 Y57.9782 Z-0.6667 I0.0063 J0.0108
G2 X12.095 Y57.9673 Z-0.7 I0.0062 J-0.0108
G2 X12.0762 Y57.9565 Z-0.7333 I-0.0125 J0.0
G2 Y57.9782 Z-0.7667 I0.0063 J0.0108
G2 X12.095 Y57.9673 Z-0.8 I0.0062 J-0.0108
G2 X12.0762 Y57.9565 Z-0.8333 I-0.0125 J0.0
G2 Y57.9782 Z-0.8667 I0.0063 J0.0108
G2 X12.095 Y57.9673 Z-0.9 I0.0062 J-0.0108
G2 X12.0762 Y57.9565 Z-0.9333 I-0.0125 J0.0
G2 Y57.9782 Z-0.9667 I0.0063 J0.0108
G2 X12.095 Y57.9673 Z-1.0 I0.0062 J-0.0108
G2 X12.0762 Y57.9565 Z-1.0333 I-0.0125 J0.0
G2 Y57.9782 Z-1.0667 I0.0063 J0.0108
G2 X12.095 Y57.9673 Z-1.1 I0.0062 J-0.0108
G2 X12.0762 Y57.9565 Z-1.1333 I-0.0125 J0.0
G2 Y57.9782 Z-1.1667 I0.0063 J0.0108
G2 X12.095 Y57.9673 Z-1.2 I0.0062 J-0.0108
G2 X12.0762 Y57.9565 Z-1.2333 I-0.0125 J0.0
G2 Y57.9782 Z-1.2667 I0.0063 J0.0108
G2 X12.095 Y57.9673 Z-1.3 I0.0062 J-0.0108
G2 X12.0762 Y57.9565 Z-1.3333 I-0.0125 J0.0
G2 Y57.9782 Z-1.3667 I0.0063 J0.0108
G2 X12.095 Y57.9673 Z-1.4 I0.0062 J-0.0108
G2 X12.0762 Y57.9565 Z-1.4333 I-0.0125 J0.0
G2 Y57.9782 Z-1.4667 I0.0063 J0.0108
G2 X12.095 Y57.9673 Z-1.5 I0.0062 J-0.0108
G2 X12.0762 Y57.9565 Z-1.5333 I-0.0125 J0.0
G2 Y57.9782 Z-1.5667 I0.0063 J0.0108
G2 X12.095 Y57.9673 Z-1.6 I0.0062 J-0.0108
G2 X12.0762 Y57.9565 Z-1.6333 I-0.0125 J0.0
G2 Y57.9782 Z-1.6667 I0.0063 J0.0108
G2 X12.095 Y57.9673 Z-1.7 I0.0062 J-0.0108
G2 X12.0762 Y57.9565 Z-1.7333 I-0.0125 J0.0
G2 Y57.9782 Z-1.7667 I0.0063 J0.0108
G2 X12.095 Y57.9673 Z-1.8 I0.0062 J-0.0108
G2 X12.0762 Y57.9565 Z-1.8333 I-0.0125 J0.0
G2 Y57.9782 Z-1.8667 I0.0063 J0.0108
G2 X12.095 Y57.9673 Z-1.9 I0.0062 J-0.0108
G2 X12.0762 Y57.9565 Z-1.9333 I-0.0125 J0.0
G2 Y57.9782 Z-1.9667 I0.0063 J0.0108
G2 X12.095 Y57.9673 Z-2.0 I0.0062 J-0.0108
G2 X12.0762 Y57.9565 Z-2.0333 I-0.0125 J0.0
G2 Y57.9782 Z-2.0667 I0.0063 J0.0108
G2 X12.095 Y57.9673 Z-2.1 I0.0062 J-0.0108
G2 X12.0762 Y57.9565 Z-2.1333 I-0.0125 J0.0
G2 Y57.9782 Z-2.1667 I0.0063 J0.0108
G2 X12.095 Y57.9673 Z-2.2 I0.0062 J-0.0108
G2 X12.0762 Y57.9565 Z-2.2333 I-0.0125 J0.0
G2 Y57.9782 Z-2.2667 I0.0063 J0.0108
G2 X12.095 Y57.9673 Z-2.3 I0.0062 J-0.0108
G2 X12.0762 Y57.9565 Z-2.3333 I-0.0125 J0.0
G2 Y57.9782 Z-2.3667 I0.0063 J0.0108
G2 X12.095 Y57.9673 Z-2.4 I0.0062 J-0.0108
G2 X12.0762 Y57.9565 Z-2.4333 I-0.0125 J0.0
G2 Y57.9782 Z-2.4667 I0.0063 J0.0108
G2 X12.095 Y57.9673 Z-2.5 I0.0062 J-0.0108
G2 X12.0762 Y57.9565 Z-2.5333 I-0.0125 J0.0
G2 Y57.9782 Z-2.5667 I0.0063 J0.0108
G2 X12.095 Y57.9673 Z-2.6 I0.0062 J-0.0108
G2 X12.0762 Y57.9565 Z-2.6333 I-0.0125 J0.0
G2 Y57.9782 Z-2.6667 I0.0063 J0.0108
G2 X12.095 Y57.9673 Z-2.7 I0.0062 J-0.0108
G2 X12.0762 Y57.9565 Z-2.7333 I-0.0125 J0.0
G2 Y57.9782 Z-2.7667 I0.0063 J0.0108
G2 X12.095 Y57.9673 Z-2.8 I0.0062 J-0.0108
G2 X12.0762 Y57.9565 Z-2.8333 I-0.0125 J0.0
G2 Y57.9782 Z-2.8667 I0.0063 J0.0108
G2 X12.095 Y57.9673 Z-2.9 I0.0062 J-0.0108
G2 X12.0762 Y57.9565 Z-2.9333 I-0.0125 J0.0
G2 Y57.9782 Z-2.9667 I0.0063 J0.0108
G2 X12.095 Y57.9673 Z-3.0 I0.0062 J-0.0108
G2 X12.0762 Y57.9565 Z-3.0333 I-0.0125 J0.0
G2 Y57.9782 Z-3.0667 I0.0063 J0.0108
G2 X12.095 Y57.9673 Z-3.1 I0.0062 J-0.0108
G2 X12.0762 Y57.9565 Z-3.1333 I-0.0125 J0.0
G2 Y57.9782 Z-3.1667 I0.0063 J0.0108
G2 X12.095 Y57.9673 Z-3.2 I0.0062 J-0.0108
G2 X12.0762 Y57.9565 I-0.0125 J0.0
G2 Y57.9782 I0.0063 J0.0108
G2 X12.095 Y57.9673 I0.0062 J-0.0108
G0 Z3.0
G0 X29.0871 Y125.3179
G1 F1000.0 Z0.0
G2 F2000.0 X29.0684 Y125.3071 Z-0.0333 I-0.0125 J0.0
G2 Y125.3287 Z-0.0667 I0.0062 J0.0108
G2 X29.0871 Y125.3179 Z-0.1 I0.0063 J-0.0108
G2 X29.0684 Y125.3071 Z-0.1333 I-0.0125 J0.0
G2 Y125.3287 Z-0.1667 I0.0062 J0.0108
G2 X29.0871 Y125.3179 Z-0.2 I0.0063 J-0.0108
G2 X29.0684 Y125.3071 Z-0.2333 I-0.0125 J0.0
G2 Y125.3287 Z-0.2667 I0.0062 J0.0108
G2 X29.0871 Y125.3179 Z-0.3 I0.0063 J-0.0108
G2 X29.0684 Y125.3071 Z-0.3333 I-0.0125 J0.0
G2 Y125.3287 Z-0.3667 I0.0062 J0.0108
G2 X29.0871 Y125.3179 Z-0.4 I0.0063 J-0.0108
G2 X29.0684 Y125.3071 Z-0.4333 I-0.0125 J0.0
G2 Y125.3287 Z-0.4667 I0.0062 J0.0108
G2 X29.0871 Y125.3179 Z-0.5 I0.0063 J-0.0108
G2 X29.0684 Y125.3071 Z-0.5333 I-0.0125 J0.0
G2 Y125.3287 Z-0.5667 I0.0062 J0.0108
G2 X29.0871 Y125.3179 Z-0.6 I0.0063 J-0.0108
G2 X29.0684 Y125.3071 Z-0.6333 I-0.0125 J0.0
G2 Y125.3287 Z-0.6667 I0.0062 J0.0108
G2 X29.0871 Y125.3179 Z-0.7 I0.0063 J-0.0108
G2 X29.0684 Y125.3071 Z-0.7333 I-0.0125 J0.0
G2 Y125.3287 Z-0.7667 I0.0062 J0.0108
G2 X29.0871 Y125.3179 Z-0.8 I0.0063 J-0.0108
G2 X29.0684 Y125.3071 Z-0.8333 I-0.0125 J0.0
G2 Y125.3287 Z-0.8667 I0.0062 J0.0108
G2 X29.0871 Y125.3179 Z-0.9 I0.0063 J-0.0108
G2 X29.0684 Y125.3071 Z-0.9333 I-0.0125 J0.0
G2 Y125.3287 Z-0.9667 I0.0062 J0.0108
G2 X29.0871 Y125.3179 Z-1.0 I0.0063 J-0.0108
G2 X29.0684 Y125.3071 Z-1.0333 I-0.0125 J0.0
G2 Y125.3287 Z-1.0667 I0.0062 J0.0108
G2 X29.0871 Y125.3179 Z-1.1 I0.0063 J-0.0108
G2 X29.0684 Y125.3071 Z-1.1333 I-0.0125 J0.0
G2 Y125.3287 Z-1.1667 I0.0062 J0.0108
G2 X29.0871 Y125.3179 Z-1.2 I0.0063 J-0.0108
G2 X29.0684 Y125.3071 Z-1.2333 I-0.0125 J0.0
G2 Y125.3287 Z-1.2667 I0.0062 J0.0108
G2 X29.0871 Y125.3179 Z-1.3 I0.0063 J-0.0108
G2 X29.0684 Y125.3071 Z-1.3333 I-0.0125 J0.0
G2 Y125.3287 Z-1.3667 I0.0062 J0.0108
G2 X29.0871 Y125.3179 Z-1.4 I0.0063 J-0.0108
G2 X29.0684 Y125.3071 Z-1.4333 I-0.0125 J0.0
G2 Y125.3287 Z-1.4667 I0.0062 J0.0108
G2 X29.0871 Y125.3179 Z-1.5 I0.0063 J-0.0108
G2 X29.0684 Y125.3071 Z-1.5333 I-0.0125 J0.0
G2 Y125.3287 Z-1.5667 I0.0062 J0.0108
G2 X29.0871 Y125.3179 Z-1.6 I0.0063 J-0.0108
G2 X29.0684 Y125.3071 Z-1.6333 I-0.0125 J0.0
G2 Y125.3287 Z-1.6667 I0.0062 J0.0108
G2 X29.0871 Y125.3179 Z-1.7 I0.0063 J-0.0108
G2 X29.0684 Y125.3071 Z-1.7333 I-0.0125 J0.0
G2 Y125.3287 Z-1.7667 I0.0062 J0.0108
G2 X29.0871 Y125.3179 Z-1.8 I0.0063 J-0.0108
G2 X29.0684 Y125.3071 Z-1.8333 I-0.0125 J0.0
G2 Y125.3287 Z-1.8667 I0.0062 J0.0108
G2 X29.0871 Y125.3179 Z-1.9 I0.0063 J-0.0108
G2 X29.0684 Y125.3071 Z-1.9333 I-0.0125 J0.0
G2 Y125.3287 Z-1.9667 I0.0062 J0.0108
G2 X29.0871 Y125.3179 Z-2.0 I0.0063 J-0.0108
G2 X29.0684 Y125.3071 Z-2.0333 I-0.0125 J0.0
G2 Y125.3287 Z-2.0667 I0.0062 J0.0108
G2 X29.0871 Y125.3179 Z-2.1 I0.0063 J-0.0108
G2 X29.0684 Y125.3071 Z-2.1333 I-0.0125 J0.0
G2 Y125.3287 Z-2.1667 I0.0062 J0.0108
G2 X29.0871 Y125.3179 Z-2.2 I0.0063 J-0.0108
G2 X29.0684 Y125.3071 Z-2.2333 I-0.0125 J0.0
G2 Y125.3287 Z-2.2667 I0.0062 J0.0108
G2 X29.0871 Y125.3179 Z-2.3 I0.0063 J-0.0108
G2 X29.0684 Y125.3071 Z-2.3333 I-0.0125 J0.0
G2 Y125.3287 Z-2.3667 I0.0062 J0.0108
G2 X29.0871 Y125.3179 Z-2.4 I0.0063 J-0.0108
G2 X29.0684 Y125.3071 Z-2.4333 I-0.0125 J0.0
G2 Y125.3287 Z-2.4667 I0.0062 J0.0108
G2 X29.0871 Y125.3179 Z-2.5 I0.0063 J-0.0108
G2 X29.0684 Y125.3071 Z-2.5333 I-0.0125 J0.0
G2 Y125.3287 Z-2.5667 I0.0062 J0.0108
G2 X29.0871 Y125.3179 Z-2.6 I0.0063 J-0.0108
G2 X29.0684 Y125.3071 Z-2.6333 I-0.0125 J0.0
G2 Y125.3287 Z-2.6667 I0.0062 J0.0108
G2 X29.0871 Y125.3179 Z-2.7 I0.0063 J-0.0108
G2 X29.0684 Y125.3071 Z-2.7333 I-0.0125 J0.0
G2 Y125.3287 Z-2.7667 I0.0062 J0.0108
G2 X29.0871 Y125.3179 Z-2.8 I0.0063 J-0.0108
G2 X29.0684 Y125.3071 Z-2.8333 I-0.0125 J0.0
G2 Y125.3287 Z-2.8667 I0.0062 J0.0108
G2 X29.0871 Y125.3179 Z-2.9 I0.0063 J-0.0108
G2 X29.0684 Y125.3071 Z-2.9333 I-0.0125 J0.0
G2 Y125.3287 Z-2.9667 I0.0062 J0.0108
G2 X29.0871 Y125.3179 Z-3.0 I0.0063 J-0.0108
G2 X29.0684 Y125.3071 Z-3.0333 I-0.0125 J0.0
G2 Y125.3287 Z-3.0667 I0.0062 J0.0108
G2 X29.0871 Y125.3179 Z-3.1 I0.0063 J-0.0108
G2 X29.0684 Y125.3071 Z-3.1333 I-0.0125 J0.0
G2 Y125.3287 Z-3.1667 I0.0062 J0.0108
G2 X29.0871 Y125.3179 Z-3.2 I0.0063 J-0.0108
G2 X29.0684 Y125.3071 I-0.0125 J0.0
G2 Y125.3287 I0.0063 J0.0108
G2 X29.0871 Y125.3179 I0.0062 J-0.0108
( display )
S1000
G0 Z3.0
G0 X7.9436 Y83.3195
G1 F1000.0 Z-0.1
G1 F2000.0 Y93.0774
G1 X29.7016
G1 Y83.3195
G1 X7.9436
G1 F1000.0 Z-0.2
G1 F2000.0 Y93.0774
G1 X29.7016
G1 Y83.3195
G1 X7.9436
G1 F1000.0 Z-0.3
G1 F2000.0 Y93.0774
G1 X29.7016
G1 Y83.3195
G1 X7.9436
G1 F1000.0 Z-0.4
G1 F2000.0 Y93.0774
G1 X29.7016
G1 Y83.3195
G1 X7.9436
G1 F1000.0 Z-0.5
G1 F2000.0 Y93.0774
G1 X29.7016
G1 Y83.3195
G1 X7.9436
G1 F1000.0 Z-0.6
G1 F2000.0 Y93.0774
G1 X29.7016
G1 Y83.3195
G1 X7.9436
G1 F1000.0 Z-0.7
G1 F2000.0 Y93.0774
G1 X29.7016
G1 Y83.3195
G1 X7.9436
G1 F1000.0 Z-0.8
G1 F2000.0 Y85.7539
G1 Y87.8414 Z-0.7
G1 Y89.9289 Z-0.8
G1 Y93.0774
G1 X29.7016
G1 Y90.2412
G1 Y88.1537 Z-0.7
G1 Y86.0662 Z-0.8
G1 Y83.3195
G1 X7.9436
G1 F1000.0 Z-0.9
G1 F2000.0 Y85.7539
G1 Y87.8414 Z-0.7
G1 Y89.9289 Z-0.9
G1 Y93.0774
G1 X29.7016
G1 Y90.2412
G1 Y88.1537 Z-0.7
G1 Y86.0662 Z-0.9
G1 Y83.3195
G1 X7.9436
G1 F1000.0 Z-1.0
G1 F2000.0 Y85.7539
G1 Y87.8414 Z-0.7
G1 Y89.9289 Z-1.0
G1 Y93.0774
G1 X29.7016
G1 Y90.2412
G1 Y88.1537 Z-0.7
G1 Y86.0662 Z-1.0
G1 Y83.3195
G1 X7.9436
G1 F1000.0 Z-1.1
G1 F2000.0 Y85.7539
G1 Y87.8414 Z-0.7
G1 Y89.9289 Z-1.1
G1 Y93.0774
G1 X29.7016
G1 Y90.2412
G1 Y88.1537 Z-0.7
G1 Y86.0662 Z-1.1
G1 Y83.3195
G1 X7.9436
G1 F1000.0 Z-1.2
G1 F2000.0 Y85.7539
G1 Y87.8414 Z-0.7
G1 Y89.9289 Z-1.2
G1 Y93.0774
G1 X29.7016
G1 Y90.2412
G1 Y88.1537 Z-0.7
G1 Y86.0662 Z-1.2
G1 Y83.3195
G1 X7.9436
G1 F1000.0 Z-1.3
G1 F2000.0 Y85.7539
G1 Y87.8414 Z-0.7
G1 Y89.9289 Z-1.3
G1 Y93.0774
G1 X29.7016
G1 Y90.2412
G1 Y88.1537 Z-0.7
G1 Y86.0662 Z-1.3
G1 Y83.3195
G1 X7.9436
G1 F1000.0 Z-1.4
G1 F2000.0 Y85.7539
G1 Y87.8414 Z-0.7
G1 Y89.9289 Z-1.4
G1 Y93.0774
G1 X29.7016
G1 Y90.2412
G1 Y88.1537 Z-0.7
G1 Y86.0662 Z-1.4
G1 Y83.3195
G1 X7.9436
G1 F1000.0 Z-1.5
G1 F2000.0 Y85.7539
G1 Y87.8414 Z-0.7
G1 Y89.9289 Z-1.5
G1 Y93.0774
G1 X29.7016
G1 Y90.2412
G1 Y88.1537 Z-0.7
G1 Y86.0662 Z-1.5
G1 Y83.3195
G1 X7.9436
G1 F1000.0 Z-1.6
G1 F2000.0 Y85.7539
G1 Y87.8414 Z-0.7
G1 Y89.9289 Z-1.6
G1 Y93.0774
G1 X29.7016
G1 Y90.2412
G1 Y88.1537 Z-0.7
G1 Y86.0662 Z-1.6
G1 Y83.3195
G1 X7.9436
G1 F1000.0 Z-1.7
G1 F2000.0 Y85.7539
G1 Y87.8414 Z-0.7
G1 Y89.9289 Z-1.7
G1 Y93.0774
G1 X29.7016
G1 Y90.2412
G1 Y88.1537 Z-0.7
G1 Y86.0662 Z-1.7
G1 Y83.3195
G1 X7.9436
G1 F1000.0 Z-1.8
G1 F2000.0 Y85.7539
G1 Y87.8414 Z-0.7
G1 Y89.9289 Z-1.8
G1 Y93.0774
G1 X29.7016
G1 Y90.2412
G1 Y88.1537 Z-0.7
G1 Y86.0662 Z-1.8
G1 Y83.3195
G1 X7.9436
G1 F1000.0 Z-1.9
G1 F2000.0 Y85.7539
G1 Y87.8414 Z-0.7
G1 Y89.9289 Z-1.9
G1 Y93.0774
G1 X29.7016
G1 Y90.2412
G1 Y88.1537 Z-0.7
G1 Y86.0662 Z-1.9
G1 Y83.3195
G1 X7.9436
G1 F1000.0 Z-2.0
G1 F2000.0 Y85.7539
G1 Y87.8414 Z-0.7
G1 Y89.9289 Z-2.0
G1 Y93.0774
G1 X29.7016
G1 Y90.2412
G1 Y88.1537 Z-0.7
G1 Y86.0662 Z-2.0
G1 Y83.3195
G1 X7.9436
G1 F1000.0 Z-2.1
G1 F2000.0 Y85.7539
G1 Y87.8414 Z-0.7
G1 Y89.9289 Z-2.1
G1 Y93.0774
G1 X29.7016
G1 Y90.2412
G1 Y88.1537 Z-0.7
G1 Y86.0662 Z-2.1
G1 Y83.3195
G1 X7.9436
G1 F1000.0 Z-2.2
G1 F2000.0 Y85.7539
G1 Y87.8414 Z-0.7
G1 Y89.9289 Z-2.2
G1 Y93.0774
G1 X29.7016
G1 Y90.2412
G1 Y88.1537 Z-0.7
G1 Y86.0662 Z-2.2
G1 Y83.3195
G1 X7.9436
G1 F1000.0 Z-2.3
G1 F2000.0 Y85.7539
G1 Y87.8414 Z-0.7
G1 Y89.9289 Z-2.3
G1 Y93.0774
G1 X29.7016
G1 Y90.2412
G1 Y88.1537 Z-0.7
G1 Y86.0662 Z-2.3
G1 Y83.3195
G1 X7.9436
G1 F1000.0 Z-2.4
G1 F2000.0 Y85.7539
G1 Y87.8414 Z-0.7
G1 Y89.9289 Z-2.4
G1 Y93.0774
G1 X29.7016
G1 Y90.2412
G1 Y88.1537 Z-0.7
G1 Y86.0662 Z-2.4
G1 Y83.3195
G1 X7.9436
G1 F1000.0 Z-2.5
G1 F2000.0 Y85.7539
G1 Y87.8414 Z-0.7
G1 Y89.9289 Z-2.5
G1 Y93.0774
G1 X29.7016
G1 Y90.2412
G1 Y88.1537 Z-0.7
G1 Y86.0662 Z-2.5
G1 Y83.3195
G1 X7.9436
G1 F1000.0 Z-2.6
G1 F2000.0 Y85.7539
G1 Y87.8414 Z-0.7
G1 Y89.9289 Z-2.6
G1 Y93.0774
G1 X29.7016
G1 Y90.2412
G1 Y88.1537 Z-0.7
G1 Y86.0662 Z-2.6
G1 Y83.3195
G1 X7.9436
G1 F1000.0 Z-2.7
G1 F2000.0 Y85.7539
G1 Y87.8414 Z-0.7
G1 Y89.9289 Z-2.7
G1 Y93.0774
G1 X29.7016
G1 Y90.2412
G1 Y88.1537 Z-0.7
G1 Y86.0662 Z-2.7
G1 Y83.3195
G1 X7.9436
G1 F1000.0 Z-2.8
G1 F2000.0 Y85.7539
G1 Y87.8414 Z-0.7
G1 Y89.9289 Z-2.8
G1 Y93.0774
G1 X29.7016
G1 Y90.2412
G1 Y88.1537 Z-0.7
G1 Y86.0662 Z-2.8
G1 Y83.3195
G1 X7.9436
G1 F1000.0 Z-2.9
G1 F2000.0 Y85.7539
G1 Y87.8414 Z-0.7
G1 Y89.9289 Z-2.9
G1 Y93.0774
G1 X29.7016
G1 Y90.2412
G1 Y88.1537 Z-0.7
G1 Y86.0662 Z-2.9
G1 Y83.3195
G1 X7.9436
G1 F1000.0 Z-3.0
G1 F2000.0 Y85.7539
G1 Y87.8414 Z-0.7
G1 Y89.9289 Z-3.0
G1 Y93.0774
G1 X29.7016
G1 Y90.2412
G1 Y88.1537 Z-0.7
G1 Y86.0662 Z-3.0
G1 Y83.3195
G1 X7.9436
G1 F1000.0 Z-3.1
G1 F2000.0 Y85.7539
G1 Y87.8414 Z-0.7
G1 Y89.9289 Z-3.1
G1 Y93.0774
G1 X29.7016
G1 Y90.2412
G1 Y88.1537 Z-0.7
G1 Y86.0662 Z-3.1
G1 Y83.3195
G1 X7.9436
G1 F1000.0 Z-3.2
G1 F2000.0 Y85.7539
G1 Y87.8414 Z-0.7
G1 Y89.9289 Z-3.2
G1 Y93.0774
G1 X29.7016
G1 Y90.2412
G1 Y88.1537 Z-0.7
G1 Y86.0662 Z-3.2
G1 Y83.3195
G1 X7.9436
( cutout )
S1000
G0 Z3.0
G0 X13.3748 Y-1.5667
G1 F1000.0 Z-0.1
G1 F2000.0 X0.0186
G2 X-1.5689 Y0.0208 I0.0 J1.5875
G1 Y128.4953
G2 X0.0186 Y130.0828 I1.5875 J0.0
G1 X37.0011
G2 X38.5886 Y128.4953 I0.0 J-1.5875
G1 Y0.0208
G2 X37.0011 Y-1.5667 I-1.5875 J0.0
G1 X13.3748
G1 F1000.0 Z-0.2
G1 F2000.0 X0.0186
G2 X-1.5689 Y0.0208 I0.0 J1.5875
G1 Y128.4953
G2 X0.0186 Y130.0828 I1.5875 J0.0
G1 X37.0011
G2 X38.5886 Y128.4953 I0.0 J-1.5875
G1 Y0.0208
G2 X37.0011 Y-1.5667 I-1.5875 J0.0
G1 X13.3748
G1 F1000.0 Z-0.3
G1 F2000.0 X0.0186
G2 X-1.5689 Y0.0208 I0.0 J1.5875
G1 Y128.4953
G2 X0.0186 Y130.0828 I1.5875 J0.0
G1 X37.0011
G2 X38.5886 Y128.4953 I0.0 J-1.5875
G1 Y0.0208
G2 X37.0011 Y-1.5667 I-1.5875 J0.0
G1 X13.3748
G1 F1000.0 Z-0.4
G1 F2000.0 X0.0186
G2 X-1.5689 Y0.0208 I0.0 J1.5875
G1 Y128.4953
G2 X0.0186 Y130.0828 I1.5875 J0.0
G1 X37.0011
G2 X38.5886 Y128.4953 I0.0 J-1.5875
G1 Y0.0208
G2 X37.0011 Y-1.5667 I-1.5875 J0.0
G1 X13.3748
G1 F1000.0 Z-0.5
G1 F2000.0 X0.0186
G2 X-1.5689 Y0.0208 I0.0 J1.5875
G1 Y128.4953
G2 X0.0186 Y130.0828 I1.5875 J0.0
G1 X37.0011
G2 X38.5886 Y128.4953 I0.0 J-1.5875
G1 Y0.0208
G2 X37.0011 Y-1.5667 I-1.5875 J0.0
G1 X13.3748
G1 F1000.0 Z-0.6
G1 F2000.0 X0.0186
G2 X-1.5689 Y0.0208 I0.0 J1.5875
G1 Y128.4953
G2 X0.0186 Y130.0828 I1.5875 J0.0
G1 X37.0011
G2 X38.5886 Y128.4953 I0.0 J-1.5875
G1 Y0.0208
G2 X37.0011 Y-1.5667 I-1.5875 J0.0
G1 X13.3748
G1 F1000.0 Z-0.7
G1 F2000.0 X0.0186
G2 X-1.5689 Y0.0208 I0.0 J1.5875
G1 Y128.4953
G2 X0.0186 Y130.0828 I1.5875 J0.0
G1 X37.0011
G2 X38.5886 Y128.4953 I0.0 J-1.5875
G1 Y0.0208
G2 X37.0011 Y-1.5667 I-1.5875 J0.0
G1 X13.3748
G1 F1000.0 Z-0.8
G1 F2000.0 X0.0186
G2 X-1.5689 Y0.0208 I0.0 J1.5875
G1 Y27.6108
G1 Y29.6983 Z-0.7
G1 Y31.7858 Z-0.8
G1 Y113.6784
G1 Y115.7659 Z-0.7
G1 Y117.8534 Z-0.8
G1 Y128.4953
G2 X0.0186 Y130.0828 I1.5875 J0.0
G1 X37.0011
G2 X38.5886 Y128.4953 I0.0 J-1.5875
G1 Y94.2271
G1 Y92.1396 Z-0.7
G1 Y90.0521 Z-0.8
G1 Y8.1596
G1 Y6.0721 Z-0.7
G1 Y3.9846 Z-0.8
G1 Y0.0208
G2 X37.0011 Y-1.5667 I-1.5875 J0.0
G1 X13.3748
G1 F1000.0 Z-0.9
G1 F2000.0 X0.0186
G2 X-1.5689 Y0.0208 I0.0 J1.5875
G1 Y27.6108
G1 Y29.6983 Z-0.7
G1 Y31.7858 Z-0.9
G1 Y113.6784
G1 Y115.7659 Z-0.7
G1 Y117.8534 Z-0.9
G1 Y128.4953
G2 X0.0186 Y130.0828 I1.5875 J0.0
G1 X37.0011
G2 X38.5886 Y128.4953 I0.0 J-1.5875
G1 Y94.2271
G1 Y92.1396 Z-0.7
G1 Y90.0521 Z-0.9
G1 Y8.1596
G1 Y6.0721 Z-0.7
G1 Y3.9846 Z-0.9
G1 Y0.0208
G2 X37.0011 Y-1.5667 I-1.5875 J0.0
G1 X13.3748
G1 F1000.0 Z-1.0
G1 F2000.0 X0.0186
G2 X-1.5689 Y0.0208 I0.0 J1.5875
G1 Y27.6108
G1 Y29.6983 Z-0.7
G1 Y31.7858 Z-1.0
G1 Y113.6784
G1 Y115.7659 Z-0.7
G1 Y117.8534 Z-1.0
G1 Y128.4953
G2 X0.0186 Y130.0828 I1.5875 J0.0
G1 X37.0011
G2 X38.5886 Y128.4953 I0.0 J-1.5875
G1 Y94.2271
G1 Y92.1396 Z-0.7
G1 Y90.0521 Z-1.0
G1 Y8.1596
G1 Y6.0721 Z-0.7
G1 Y3.9846 Z-1.0
G1 Y0.0208
G2 X37.0011 Y-1.5667 I-1.5875 J0.0
G1 X13.3748
G1 F1000.0 Z-1.1
G1 F2000.0 X0.0186
G2 X-1.5689 Y0.0208 I0.0 J1.5875
G1 Y27.6108
G1 Y29.6983 Z-0.7
G1 Y31.7858 Z-1.1
G1 Y113.6784
G1 Y115.7659 Z-0.7
G1 Y117.8534 Z-1.1
G1 Y128.4953
G2 X0.0186 Y130.0828 I1.5875 J0.0
G1 X37.0011
G2 X38.5886 Y128.4953 I0.0 J-1.5875
G1 Y94.2271
G1 Y92.1396 Z-0.7
G1 Y90.0521 Z-1.1
G1 Y8.1596
G1 Y6.0721 Z-0.7
G1 Y3.9846 Z-1.1
G1 Y0.0208
G2 X37.0011 Y-1.5667 I-1.5875 J0.0
G1 X13.3748
G1 F1000.0 Z-1.2
G1 F2000.0 X0.0186
G2 X-1.5689 Y0.0208 I0.0 J1.5875
G1 Y27.6108
G1 Y29.6983 Z-0.7
G1 Y31.7858 Z-1.2
G1 Y113.6784
G1 Y115.7659 Z-0.7
G1 Y117.8534 Z-1.2
G1 Y128.4953
G2 X0.0186 Y130.0828 I1.5875 J0.0
G1 X37.0011
G2 X38.5886 Y128.4953 I0.0 J-1.5875
G1 Y94.2271
G1 Y92.1396 Z-0.7
G1 Y90.0521 Z-1.2
G1 Y8.1596
G1 Y6.0721 Z-0.7
G1 Y3.9846 Z-1.2
G1 Y0.0208
G2 X37.0011 Y-1.5667 I-1.5875 J0.0
G1 X13.3748
G1 F1000.0 Z-1.3
G1 F2000.0 X0.0186
G2 X-1.5689 Y0.0208 I0.0 J1.5875
G1 Y27.6108
G1 Y29.6983 Z-0.7
G1 Y31.7858 Z-1.3
G1 Y113.6784
G1 Y115.7659 Z-0.7
G1 Y117.8534 Z-1.3
G1 Y128.4953
G2 X0.0186 Y130.0828 I1.5875 J0.0
G1 X37.0011
G2 X38.5886 Y128.4953 I0.0 J-1.5875
G1 Y94.2271
G1 Y92.1396 Z-0.7
G1 Y90.0521 Z-1.3
G1 Y8.1596
G1 Y6.0721 Z-0.7
G1 Y3.9846 Z-1.3
G1 Y0.0208
G2 X37.0011 Y-1.5667 I-1.5875 J0.0
G1 X13.3748
G1 F1000.0 Z-1.4
G1 F2000.0 X0.0186
G2 X-1.5689 Y0.0208 I0.0 J1.5875
G1 Y27.6108
G1 Y29.6983 Z-0.7
G1 Y31.7858 Z-1.4
G1 Y113.6784
G1 Y115.7659 Z-0.7
G1 Y117.8534 Z-1.4
G1 Y128.4953
G2 X0.0186 Y130.0828 I1.5875 J0.0
G1 X37.0011
G2 X38.5886 Y128.4953 I0.0 J-1.5875
G1 Y94.2271
G1 Y92.1396 Z-0.7
G1 Y90.0521 Z-1.4
G1 Y8.1596
G1 Y6.0721 Z-0.7
G1 Y3.9846 Z-1.4
G1 Y0.0208
G2 X37.0011 Y-1.5667 I-1.5875 J0.0
G1 X13.3748
G1 F1000.0 Z-1.5
G1 F2000.0 X0.0186
G2 X-1.5689 Y0.0208 I0.0 J1.5875
G1 Y27.6108
G1 Y29.6983 Z-0.7
G1 Y31.7858 Z-1.5
G1 Y113.6784
G1 Y115.7659 Z-0.7
G1 Y117.8534 Z-1.5
G1 Y128.4953
G2 X0.0186 Y130.0828 I1.5875 J0.0
G1 X37.0011
G2 X38.5886 Y128.4953 I0.0 J-1.5875
G1 Y94.2271
G1 Y92.1396 Z-0.7
G1 Y90.0521 Z-1.5
G1 Y8.1596
G1 Y6.0721 Z-0.7
G1 Y3.9846 Z-1.5
G1 Y0.0208
G2 X37.0011 Y-1.5667 I-1.5875 J0.0
G1 X13.3748
G1 F1000.0 Z-1.6
G1 F2000.0 X0.0186
G2 X-1.5689 Y0.0208 I0.0 J1.5875
G1 Y27.6108
G1 Y29.6983 Z-0.7
G1 Y31.7858 Z-1.6
G1 Y113.6784
G1 Y115.7659 Z-0.7
G1 Y117.8534 Z-1.6
G1 Y128.4953
G2 X0.0186 Y130.0828 I1.5875 J0.0
G1 X37.0011
G2 X38.5886 Y128.4953 I0.0 J-1.5875
G1 Y94.2271
G1 Y92.1396 Z-0.7
G1 Y90.0521 Z-1.6
G1 Y8.1596
G1 Y6.0721 Z-0.7
G1 Y3.9846 Z-1.6
G1 Y0.0208
G2 X37.0011 Y-1.5667 I-1.5875 J0.0
G1 X13.3748
G1 F1000.0 Z-1.7
G1 F2000.0 X0.0186
G2 X-1.5689 Y0.0208 I0.0 J1.5875
G1 Y27.6108
G1 Y29.6983 Z-0.7
G1 Y31.7858 Z-1.7
G1 Y113.6784
G1 Y115.7659 Z-0.7
G1 Y117.8534 Z-1.7
G1 Y128.4953
G2 X0.0186 Y130.0828 I1.5875 J0.0
G1 X37.0011
G2 X38.5886 Y128.4953 I0.0 J-1.5875
G1 Y94.2271
G1 Y92.1396 Z-0.7
G1 Y90.0521 Z-1.7
G1 Y8.1596
G1 Y6.0721 Z-0.7
G1 Y3.9846 Z-1.7
G1 Y0.0208
G2 X37.0011 Y-1.5667 I-1.5875 J0.0
G1 X13.3748
G1 F1000.0 Z-1.8
G1 F2000.0 X0.0186
G2 X-1.5689 Y0.0208 I0.0 J1.5875
G1 Y27.6108
G1 Y29.6983 Z-0.7
G1 Y31.7858 Z-1.8
G1 Y113.6784
G1 Y115.7659 Z-0.7
G1 Y117.8534 Z-1.8
G1 Y128.4953
G2 X0.0186 Y130.0828 I1.5875 J0.0
G1 X37.0011
G2 X38.5886 Y128.4953 I0.0 J-1.5875
G1 Y94.2271
G1 Y92.1396 Z-0.7
G1 Y90.0521 Z-1.8
G1 Y8.1596
G1 Y6.0721 Z-0.7
G1 Y3.9846 Z-1.8
G1 Y0.0208
G2 X37.0011 Y-1.5667 I-1.5875 J0.0
G1 X13.3748
G1 F1000.0 Z-1.9
G1 F2000.0 X0.0186
G2 X-1.5689 Y0.0208 I0.0 J1.5875
G1 Y27.6108
G1 Y29.6983 Z-0.7
G1 Y31.7858 Z-1.9
G1 Y113.6784
G1 Y115.7659 Z-0.7
G1 Y117.8534 Z-1.9
G1 Y128.4953
G2 X0.0186 Y130.0828 I1.5875 J0.0
G1 X37.0011
G2 X38.5886 Y128.4953 I0.0 J-1.5875
G1 Y94.2271
G1 Y92.1396 Z-0.7
G1 Y90.0521 Z-1.9
G1 Y8.1596
G1 Y6.0721 Z-0.7
G1 Y3.9846 Z-1.9
G1 Y0.0208
G2 X37.0011 Y-1.5667 I-1.5875 J0.0
G1 X13.3748
G1 F1000.0 Z-2.0
G1 F2000.0 X0.0186
G2 X-1.5689 Y0.0208 I0.0 J1.5875
G1 Y27.6108
G1 Y29.6983 Z-0.7
G1 Y31.7858 Z-2.0
G1 Y113.6784
G1 Y115.7659 Z-0.7
G1 Y117.8534 Z-2.0
G1 Y128.4953
G2 X0.0186 Y130.0828 I1.5875 J0.0
G1 X37.0011
G2 X38.5886 Y128.4953 I0.0 J-1.5875
G1 Y94.2271
G1 Y92.1396 Z-0.7
G1 Y90.0521 Z-2.0
G1 Y8.1596
G1 Y6.0721 Z-0.7
G1 Y3.9846 Z-2.0
G1 Y0.0208
G2 X37.0011 Y-1.5667 I-1.5875 J0.0
G1 X13.3748
G1 F1000.0 Z-2.1
G1 F2000.0 X0.0186
G2 X-1.5689 Y0.0208 I0.0 J1.5875
G1 Y27.6108
G1 Y29.6983 Z-0.7
G1 Y31.7858 Z-2.1
G1 Y113.6784
G1 Y115.7659 Z-0.7
G1 Y117.8534 Z-2.1
G1 Y128.4953
G2 X0.0186 Y130.0828 I1.5875 J0.0
G1 X37.0011
G2 X38.5886 Y128.4953 I0.0 J-1.5875
G1 Y94.2271
G1 Y92.1396 Z-0.7
G1 Y90.0521 Z-2.1
G1 Y8.1596
G1 Y6.0721 Z-0.7
G1 Y3.9846 Z-2.1
G1 Y0.0208
G2 X37.0011 Y-1.5667 I-1.5875 J0.0
G1 X13.3748
G1 F1000.0 Z-2.2
G1 F2000.0 X0.0186
G2 X-1.5689 Y0.0208 I0.0 J1.5875
G1 Y27.6108
G1 Y29.6983 Z-0.7
G1 Y31.7858 Z-2.2
G1 Y113.6784
G1 Y115.7659 Z-0.7
G1 Y117.8534 Z-2.2
G1 Y128.4953
G2 X0.0186 Y130.0828 I1.5875 J0.0
G1 X37.0011
G2 X38.5886 Y128.4953 I0.0 J-1.5875
G1 Y94.2271
G1 Y92.1396 Z-0.7
G1 Y90.0521 Z-2.2
G1 Y8.1596
G1 Y6.0721 Z-0.7
G1 Y3.9846 Z-2.2
G1 Y0.0208
G2 X37.0011 Y-1.5667 I-1.5875 J0.0
G1 X13.3748
G1 F1000.0 Z-2.3
G1 F2000.0 X0.0186
G2 X-1.5689 Y0.0208 I0.0 J1.5875
G1 Y27.6108
G1 Y29.6983 Z-0.7
G1 Y31.7858 Z-2.3
G1 Y113.6784
G1 Y115.7659 Z-0.7
G1 Y117.8534 Z-2.3
G1 Y128.4953
G2 X0.0186 Y130.0828 I1.5875 J0.0
G1 X37.0011
G2 X38.5886 Y128.4953 I0.0 J-1.5875
G1 Y94.2271
G1 Y92.1396 Z-0.7
G1 Y90.0521 Z-2.3
G1 Y8.1596
G1 Y6.0721 Z-0.7
G1 Y3.9846 Z-2.3
G1 Y0.0208
G2 X37.0011 Y-1.5667 I-1.5875 J0.0
G1 X13.3748
G1 F1000.0 Z-2.4
G1 F2000.0 X0.0186
G2 X-1.5689 Y0.0208 I0.0 J1.5875
G1 Y27.6108
G1 Y29.6983 Z-0.7
G1 Y31.7858 Z-2.4
G1 Y113.6784
G1 Y115.7659 Z-0.7
G1 Y117.8534 Z-2.4
G1 Y128.4953
G2 X0.0186 Y130.0828 I1.5875 J0.0
G1 X37.0011
G2 X38.5886 Y128.4953 I0.0 J-1.5875
G1 Y94.2271
G1 Y92.1396 Z-0.7
G1 Y90.0521 Z-2.4
G1 Y8.1596
G1 Y6.0721 Z-0.7
G1 Y3.9846 Z-2.4
G1 Y0.0208
G2 X37.0011 Y-1.5667 I-1.5875 J0.0
G1 X13.3748
G1 F1000.0 Z-2.5
G1 F2000.0 X0.0186
G2 X-1.5689 Y0.0208 I0.0 J1.5875
G1 Y27.6108
G1 Y29.6983 Z-0.7
G1 Y31.7858 Z-2.5
G1 Y113.6784
G1 Y115.7659 Z-0.7
G1 Y117.8534 Z-2.5
G1 Y128.4953
G2 X0.0186 Y130.0828 I1.5875 J0.0
G1 X37.0011
G2 X38.5886 Y128.4953 I0.0 J-1.5875
G1 Y94.2271
G1 Y92.1396 Z-0.7
G1 Y90.0521 Z-2.5
G1 Y8.1596
G1 Y6.0721 Z-0.7
G1 Y3.9846 Z-2.5
G1 Y0.0208
G2 X37.0011 Y-1.5667 I-1.5875 J0.0
G1 X13.3748
G1 F1000.0 Z-2.6
G1 F2000.0 X0.0186
G2 X-1.5689 Y0.0208 I0.0 J1.5875
G1 Y27.6108
G1 Y29.6983 Z-0.7
G1 Y31.7858 Z-2.6
G1 Y113.6784
G1 Y115.7659 Z-0.7
G1 Y117.8534 Z-2.6
G1 Y128.4953
G2 X0.0186 Y130.0828 I1.5875 J0.0
G1 X37.0011
G2 X38.5886 Y128.4953 I0.0 J-1.5875
G1 Y94.2271
G1 Y92.1396 Z-0.7
G1 Y90.0521 Z-2.6
G1 Y8.1596
G1 Y6.0721 Z-0.7
G1 Y3.9846 Z-2.6
G1 Y0.0208
G2 X37.0011 Y-1.5667 I-1.5875 J0.0
G1 X13.3748
G1 F1000.0 Z-2.7
G1 F2000.0 X0.0186
G2 X-1.5689 Y0.0208 I0.0 J1.5875
G1 Y27.6108
G1 Y29.6983 Z-0.7
G1 Y31.7858 Z-2.7
G1 Y113.6784
G1 Y115.7659 Z-0.7
G1 Y117.8534 Z-2.7
G1 Y128.4953
G2 X0.0186 Y130.0828 I1.5875 J0.0
G1 X37.0011
G2 X38.5886 Y128.4953 I0.0 J-1.5875
G1 Y94.2271
G1 Y92.1396 Z-0.7
G1 Y90.0521 Z-2.7
G1 Y8.1596
G1 Y6.0721 Z-0.7
G1 Y3.9846 Z-2.7
G1 Y0.0208
G2 X37.0011 Y-1.5667 I-1.5875 J0.0
G1 X13.3748
G1 F1000.0 Z-2.8
G1 F2000.0 X0.0186
G2 X-1.5689 Y0.0208 I0.0 J1.5875
G1 Y27.6108
G1 Y29.6983 Z-0.7
G1 Y31.7858 Z-2.8
G1 Y113.6784
G1 Y115.7659 Z-0.7
G1 Y117.8534 Z-2.8
G1 Y128.4953
G2 X0.0186 Y130.0828 I1.5875 J0.0
G1 X37.0011
G2 X38.5886 Y128.4953 I0.0 J-1.5875
G1 Y94.2271
G1 Y92.1396 Z-0.7
G1 Y90.0521 Z-2.8
G1 Y8.1596
G1 Y6.0721 Z-0.7
G1 Y3.9846 Z-2.8
G1 Y0.0208
G2 X37.0011 Y-1.5667 I-1.5875 J0.0
G1 X13.3748
G1 F1000.0 Z-2.9
G1 F2000.0 X0.0186
G2 X-1.5689 Y0.0208 I0.0 J1.5875
G1 Y27.6108
G1 Y29.6983 Z-0.7
G1 Y31.7858 Z-2.9
G1 Y113.6784
G1 Y115.7659 Z-0.7
G1 Y117.8534 Z-2.9
G1 Y128.4953
G2 X0.0186 Y130.0828 I1.5875 J0.0
G1 X37.0011
G2 X38.5886 Y128.4953 I0.0 J-1.5875
G1 Y94.2271
G1 Y92.1396 Z-0.7
G1 Y90.0521 Z-2.9
G1 Y8.1596
G1 Y6.0721 Z-0.7
G1 Y3.9846 Z-2.9
G1 Y0.0208
G2 X37.0011 Y-1.5667 I-1.5875 J0.0
G1 X13.3748
G1 F1000.0 Z-3.0
G1 F2000.0 X0.0186
G2 X-1.5689 Y0.0208 I0.0 J1.5875
G1 Y27.6108
G1 Y29.6983 Z-0.7
G1 Y31.7858 Z-3.0
G1 Y113.6784
G1 Y115.7659 Z-0.7
G1 Y117.8534 Z-3.0
G1 Y128.4953
G2 X0.0186 Y130.0828 I1.5875 J0.0
G1 X37.0011
G2 X38.5886 Y128.4953 I0.0 J-1.5875
G1 Y94.2271
G1 Y92.1396 Z-0.7
G1 Y90.0521 Z-3.0
G1 Y8.1596
G1 Y6.0721 Z-0.7
G1 Y3.9846 Z-3.0
G1 Y0.0208
G2 X37.0011 Y-1.5667 I-1.5875 J0.0
G1 X13.3748
G1 F1000.0 Z-3.1
G1 F2000.0 X0.0186
G2 X-1.5689 Y0.0208 I0.0 J1.5875
G1 Y27.6108
G1 Y29.6983 Z-0.7
G1 Y31.7858 Z-3.1
G1 Y113.6784
G1 Y115.7659 Z-0.7
G1 Y117.8534 Z-3.1
G1 Y128.4953
G2 X0.0186 Y130.0828 I1.5875 J0.0
G1 X37.0011
G2 X38.5886 Y128.4953 I0.0 J-1.5875
G1 Y94.2271
G1 Y92.1396 Z-0.7
G1 Y90.0521 Z-3.1
G1 Y8.1596
G1 Y6.0721 Z-0.7
G1 Y3.9846 Z-3.1
G1 Y0.0208
G2 X37.0011 Y-1.5667 I-1.5875 J0.0
G1 X13.3748
G1 F1000.0 Z-3.2
G1 F2000.0 X0.0186
G2 X-1.5689 Y0.0208 I0.0 J1.5875
G1 Y27.6108
G1 Y29.6983 Z-0.7
G1 Y31.7858 Z-3.2
G1 Y113.6784
G1 Y115.7659 Z-0.7
G1 Y117.8534 Z-3.2
G1 Y128.4953
G2 X0.0186 Y130.0828 I1.5875 J0.0
G1 X37.0011
G2 X38.5886 Y128.4953 I0.0 J-1.5875
G1 Y94.2271
G1 Y92.1396 Z-0.7
G1 Y90.0521 Z-3.2
G1 Y8.1596
G1 Y6.0721 Z-0.7
G1 Y3.9846 Z-3.2
G1 Y0.0208
G2 X37.0011 Y-1.5667 I-1.5875 J0.0
G1 X13.3748
G0 Z3.0
M5
M30
