(/Applications/pcbgcode.repo/pcb-gcode.ulp)
(Copyright 2005 - 2012 by John Johnson)
(See readme.txt for licensing terms.)
(This file generated from the board:)
(.../eagle/atmega_frequency_counter.brd)
(Current profile is .../pcbgcode.repo/profiles/mach.pp  )
(This file generated 1/8/16 10:11 PM)
(Settings from pcb-machine.h)
(spindle on time = 0.0000)
(spindle speed = 20000.0000)
(tool change at 0.0000  0.0000  3.0000  )
(feed rate xy = F0     )
(feed rate z  = F20    )
(Z Axis Settings)
(  High     Up        Down     Drill)
(1.0000  	0.0500  	-0.0040 	-0.0730 )
(Settings from pcb-defaults.h)
(isolate min = 0.0010)
(isolate max = 0.0150)
(isolate step = 0.0015)
(Generated bottom outlines, bottom drill, )
(Unit of measure: inch)
( Tool|       Size       |  Min Sub |  Max Sub |   Count )
( T01 | 0.800mm 0.0315in | 0.0000in | 0.0000in |       0 )
( T02 | 0.813mm 0.0320in | 0.0000in | 0.0000in |       0 )
( T03 | 0.914mm 0.0360in | 0.0000in | 0.0000in |       0 )
( T04 | 1.016mm 0.0400in | 0.0000in | 0.0000in |       0 )
( T05 | 1.300mm 0.0512in | 0.0000in | 0.0000in |       0 )
(Inch Mode)
G20
(Absolute Coordinates)
G90
S20000
G00 Z1.0000  
G00 X0.0000  Y0.0000  
M03
G04 P0.000000
M05
G00 Z3.0000  
M06 T01  ; 0.0315  
G01 Z0.0000  F20    
M06 
G00 Z0.0500  
M03
G04 P0.000000
G82 X-0.3000 Y2.2016  Z-0.0730 F20    R0.0500  P0.010000
G82 X-0.3000 Y2.3984  
G82 X-1.1016 Y2.2250  
G82 X-1.2984 Y2.2250  
G82 X-2.4000 Y1.3750  
G82 X-2.5000 Y1.3000  
G82 X-2.4000 Y1.0500  
G82 X-2.5000 Y0.9500  
G82 X-2.7000 Y1.0200  
G82 X-2.7000 Y0.7750  
M05
G00 Z3.0000  
G00 X0.0000  Y0.0000  
M06 T02  ; 0.0320  
G01 Z0.0000  F20    
M06 
G00 Z0.0500  
M03
G04 P0.000000
G82 X-0.1000 Y0.8000  Z-0.0730 F20    R0.0500  P0.010000
G82 X-0.4500 Y0.9500  
G82 X-0.4500 Y1.1000  
G82 X-0.5500 Y1.1000  
G82 X-0.5500 Y1.2000  
G82 X-0.5500 Y1.3000  
G82 X-0.5500 Y1.4000  
G82 X-0.4500 Y1.3000  
G82 X-0.3250 Y1.1500  
G82 X-0.1750 Y1.2000  
G82 X-0.3250 Y1.5500  
G82 X-0.1750 Y1.6000  
G82 X-0.2500 Y1.7500  
G82 X-0.6500 Y1.7500  
G82 X-0.7500 Y1.7500  
G82 X-0.8500 Y1.7500  
G82 X-0.7500 Y1.5500  
G82 X-0.6500 Y1.5500  
G82 X-0.8500 Y1.4000  
G82 X-0.8500 Y1.3000  
G82 X-0.8500 Y1.2000  
G82 X-0.8500 Y1.1000  
G82 X-0.8500 Y0.9500  
G82 X-0.9500 Y0.9500  
G82 X-1.1000 Y0.9500  
G82 X-1.0500 Y0.8000  
G82 X-0.8500 Y0.8000  
G82 X-0.5000 Y0.8000  
G82 X-0.9500 Y1.3500  
G82 X-1.1000 Y1.3500  
G82 X-1.3000 Y1.4500  
G82 X-1.4500 Y1.4500  
G82 X-1.6000 Y1.4500  
G82 X-1.8000 Y1.5000  
G82 X-1.9000 Y1.5000  
G82 X-2.0000 Y1.5000  
G82 X-2.1000 Y1.5000  
G82 X-2.2000 Y1.5000  
G82 X-2.3000 Y1.5000  
G82 X-2.4000 Y1.5000  
G82 X-2.5000 Y1.5000  
G82 X-2.6000 Y1.5000  
G82 X-2.7000 Y1.5000  
G82 X-2.8000 Y1.5000  
G82 X-2.9000 Y1.5000  
G82 X-3.0000 Y1.5000  
G82 X-3.1000 Y1.5000  
G82 X-3.2250 Y1.5300  
G82 X-3.1000 Y1.8000  
G82 X-3.0000 Y1.8000  
G82 X-2.9000 Y1.8000  
G82 X-2.8000 Y1.8000  
G82 X-2.7000 Y1.8000  
G82 X-2.6000 Y1.8000  
G82 X-2.5000 Y1.8000  
G82 X-2.4000 Y1.8000  
G82 X-2.3000 Y1.8000  
G82 X-2.2000 Y1.8000  
G82 X-2.1000 Y1.8000  
G82 X-2.0000 Y1.8000  
G82 X-1.9000 Y1.8000  
G82 X-1.8000 Y1.8000  
G82 X-1.7000 Y1.9500  
G82 X-1.6000 Y1.8500  
G82 X-1.4500 Y1.8500  
G82 X-1.3000 Y1.8500  
G82 X-1.3000 Y1.9500  
G82 X-1.1500 Y1.8000  
G82 X-1.1500 Y1.7000  
G82 X-1.4000 Y1.2600  
G82 X-1.2750 Y1.1500  
G82 X-1.4000 Y1.0500  
G82 X-1.5000 Y1.0500  
G82 X-1.6000 Y1.0500  
G82 X-1.7000 Y1.0500  
G82 X-1.8500 Y1.0500  
G82 X-1.8500 Y0.8500  
G82 X-1.7000 Y0.7500  
G82 X-1.6000 Y0.7500  
G82 X-1.5000 Y0.7500  
G82 X-1.4000 Y0.7500  
G82 X-1.2750 Y0.7500  
G82 X-1.8000 Y1.2600  
G82 X-2.0500 Y2.0500  
G82 X-2.0500 Y2.1500  
G82 X-2.1250 Y2.2750  
G82 X-2.2500 Y2.3750  
G82 X-2.4000 Y2.5000  
G82 X-2.5000 Y2.5000  
G82 X-2.7000 Y2.5000  
G82 X-2.7500 Y2.4250  
G82 X-2.8000 Y2.5000  
G82 X-2.6500 Y2.2500  
G82 X-2.6500 Y2.1500  
G82 X-2.6500 Y2.0500  
G82 X-2.4450 Y2.1000  
G82 X-2.2550 Y2.1000  
G82 X-2.5250 Y2.2750  
G82 X-3.0500 Y2.2500  
G82 X-3.1400 Y2.4400  
G82 X-3.2800 Y2.4400  
G82 X-3.4050 Y2.4000  
G82 X-3.4050 Y2.2000  
G82 X-3.2800 Y2.0400  
G82 X-3.2250 Y1.9300  
G82 X-3.1400 Y2.0400  
G82 X-1.8500 Y2.3750  
G82 X-0.8750 Y2.2500  
G82 X-0.8750 Y2.1500  
G82 X-0.5750 Y2.1750  
G82 X-0.4750 Y2.1750  
M05
G00 Z3.0000  
G00 X0.0000  Y0.0000  
M06 T03  ; 0.0360  
G01 Z0.0000  F20    
M06 
G00 Z0.0500  
M03
G04 P0.000000
G82 X-3.0700 Y2.5450  Z-0.0730 F20    R0.0500  P0.010000
G82 X-3.2100 Y2.5450  
G82 X-3.3500 Y2.5450  
G82 X-3.3400 Y1.9000  
G82 X-3.1550 Y1.1200  
M05
G00 Z3.0000  
G00 X0.0000  Y0.0000  
M06 T04  ; 0.0400  
G01 Z0.0000  F20    
M06 
G00 Z0.0500  
M03
G04 P0.000000
G82 X-0.8250 Y2.4750  Z-0.0730 F20    R0.0500  P0.010000
G82 X-0.8250 Y2.5750  
G82 X-0.9250 Y2.5750  
G82 X-1.0250 Y2.5750  
G82 X-1.0250 Y2.4750  
G82 X-0.9250 Y2.4750  
G82 X-1.1250 Y2.4750  
G82 X-1.1250 Y2.5750  
G82 X-1.2250 Y2.5750  
G82 X-1.3250 Y2.5750  
G82 X-1.3250 Y2.4750  
G82 X-1.2250 Y2.4750  
G82 X-1.4250 Y2.4750  
G82 X-1.5250 Y2.4750  
G82 X-1.5250 Y2.5750  
G82 X-1.4250 Y2.5750  
G82 X-2.1500 Y1.1500  
G82 X-2.1500 Y1.0500  
G82 X-2.1500 Y0.9500  
G82 X-2.2500 Y0.9500  
G82 X-2.2500 Y1.0500  
G82 X-2.2500 Y1.1500  
G82 X-2.9300 Y1.3350  
G82 X-3.0300 Y1.3350  
G82 X-3.1300 Y1.3350  
G82 X-3.2300 Y1.3350  
M05
G00 Z3.0000  
G00 X0.0000  Y0.0000  
M06 T05  ; 0.0512  
G01 Z0.0000  F20    
M06 
G00 Z0.0500  
M03
G04 P0.000000
G82 X-0.8700 Y0.0980  Z-0.0730 F20    R0.0500  P0.010000
G82 X-0.9031 Y0.0984  
G82 X-0.9370 Y0.0980  
G82 X-1.1080 Y0.4980  
G82 X-1.1079 Y0.5315  
G82 X-1.1080 Y0.5650  
G82 X-0.9360 Y0.6180  
G82 X-0.9031 Y0.6181  
G82 X-0.8700 Y0.6180  
G82 X-1.5200 Y0.6180  
G82 X-1.5531 Y0.6181  
G82 X-1.5860 Y0.6180  
G82 X-1.7580 Y0.5650  
G82 X-1.7579 Y0.5315  
G82 X-1.7580 Y0.4980  
G82 X-1.5870 Y0.0980  
G82 X-1.5531 Y0.0984  
G82 X-1.5200 Y0.0980  
T01 
G00 Z1.0000  
M05
M02
