(/Applications/pcbgcode.repo/pcb-gcode.ulp)
(Copyright 2005 - 2012 by John Johnson)
(See readme.txt for licensing terms.)
(This file generated from the board:)
(.../eagle/atmega_frequency_counter.brd)
(Current profile is .../pcbgcode.repo/profiles/mach.pp  )
(This file generated 1/8/16 10:11 PM)
(Settings from pcb-machine.h)
(spindle on time = 0.0000)
(spindle speed = 15000.0000)
(milling depth = -0.0630)
(tool change at 0.0000  0.0000  3.0000  )
(feed rate xy = F10    )
(feed rate z  = F5     )
(Z Axis Settings)
(  High     Up        Down     Drill)
(1.0000  	0.0500  	-0.0040 	-0.0730 )
(Settings from pcb-defaults.h)
(isolate min = 0.0010)
(isolate max = 0.0150)
(isolate step = 0.0015)
(Generated bottom outlines, bottom drill, )
(Unit of measure: inch)
(Inch Mode)
G20
(Absolute Coordinates)
G90
S15000
G00 Z1.0000  
G00 X0.0000  Y0.0000  
M03
G04 P0.000000
G00 Z0.0500  
G00 X0.0000  Y-0.0250 
G01 Z-0.0630 F5     
G01 X-0.0050 Y-0.0250 F10    
G01 X-0.0100 Y-0.0300 
G01 X-1.8500 Y-0.0300 
G01 X-1.9800 Y0.1000  
G01 X-3.2500 Y0.1000  
G01 X-3.3750 Y0.1050  
G01 X-3.4500 Y0.1050  
G01 X-3.5150 Y0.2100  
G01 X-3.5150 Y2.7150  
G01 X-3.4650 Y2.7750  
G01 X-0.0150 Y2.7750  
G01 X0.0400  Y2.7300  
G01 X0.0400  Y0.0250  
G01 X0.0000  Y-0.0250 
G00 Z0.0500  
G00 X-0.1000 Y0.1100  
G01 Z-0.0630 F5     
G01 X-0.1100 Y0.1100  F10    
G01 X-0.1100 Y0.1300  
G01 X-0.1000 Y0.1300  
G00 Z0.0500  
G00 X-2.4200 Y0.2500  
G01 Z-0.0630 F5     
G01 X-2.4300 Y0.2500  F10    
G01 X-2.4300 Y0.2700  
G01 X-2.4200 Y0.2700  
G00 Z0.0500  
G00 X-1.7800 Y2.5400  
G01 Z-0.0630 F5     
G01 X-1.7800 Y2.5600  F10    
G01 X-1.7700 Y2.5600  
G00 Z0.0500  
G00 X-1.7700 Y2.5400  
G01 Z-0.0630 F5     
G01 X-1.7800 Y2.5400  F10    
G00 Z0.0500  
G00 X-0.1100 Y2.6300  
G01 Z-0.0630 F5     
G01 X-0.1100 Y2.6500  F10    
G01 X-0.1000 Y2.6500  
G00 Z0.0500  
G00 X-0.1000 Y2.6300  
G01 Z-0.0630 F5     
G01 X-0.1100 Y2.6300  F10    
G00 Z1.0000  
M05
M02
